Sources/FrostedUI/Resources/Icons.xcassets/compress16.imageset/compress-16.svg

<svg width="16" height="16" viewBox="0 0 16 16" fill="none" xmlns="http://www.w3.org/2000/svg" data-fui-icon="true">
  <path
    d="M8 9.85449C8.19874 9.85458 8.38971 9.93371 8.53027 10.0742L10.8633 12.4072C11.1562 12.7001 11.1562 13.1749 10.8633 13.4678C10.5704 13.7604 10.0955 13.7606 9.80273 13.4678L8.75 12.415V15.1875C8.74992 15.6015 8.41401 15.9373 8 15.9375C7.58601 15.9373 7.25008 15.6015 7.25 15.1875V12.415L6.19629 13.4678C5.90336 13.7602 5.42849 13.7605 5.13574 13.4678C4.84326 13.175 4.84336 12.7001 5.13574 12.4072L7.46973 10.0742C7.61029 9.93365 7.80122 9.85459 8 9.85449ZM13.5 7.25C13.9142 7.25 14.25 7.58579 14.25 8C14.25 8.41421 13.9142 8.75 13.5 8.75H2.5C2.08579 8.75 1.75 8.41421 1.75 8C1.75 7.58579 2.08579 7.25 2.5 7.25H13.5ZM8 0.0625C8.4141 0.0626319 8.75 0.398368 8.75 0.8125V3.58496L9.80371 2.53223C10.0966 2.23962 10.5715 2.23943 10.8643 2.53223C11.1568 2.82505 11.1568 3.29995 10.8643 3.59277L8.53027 5.92578C8.38968 6.06638 8.19882 6.14544 8 6.14551C7.80126 6.14542 7.61029 6.06628 7.46973 5.92578L5.13672 3.59277C4.84383 3.29988 4.84383 2.82512 5.13672 2.53223C5.42962 2.23946 5.90441 2.23937 6.19727 2.53223L7.25 3.58496V0.8125C7.25 0.398395 7.58594 0.0626758 8 0.0625Z"
    fill="currentColor"
  />
</svg>

<svg xmlns="http://www.w3.org/2000/svg" width="16" height="16" fill="none" data-fui-icon="true" viewBox="0 0 16 16"><path fill="currentColor" d="M8 9.854c.199 0 .39.08.53.22l2.333 2.333a.75.75 0 1 1-1.06 1.06L8.75 12.416v2.773a.75.75 0 0 1-1.5 0v-2.773l-1.054 1.053a.75.75 0 0 1-1.06-1.06l2.334-2.334a.75.75 0 0 1 .53-.22m5.5-2.604a.75.75 0 0 1 0 1.5h-11a.75.75 0 0 1 0-1.5zM8 .063a.75.75 0 0 1 .75.75v2.772l1.054-1.053a.75.75 0 0 1 1.06 1.06L8.53 5.927a.75.75 0 0 1-1.06 0L5.137 3.593a.75.75 0 1 1 1.06-1.06L7.25 3.584V.813A.75.75 0 0 1 8 .063"/></svg>
